X:383
T:Lou manigue
C:trad.
A:Limousin
O:France
Z:S. Piron
M:2/4
L:1/8
Q:1/4=100
K:F
A2AB|c2G2|ABAG|G2F2|ABAG|F2AA||
M:6/8
Q:1/4=170
A2FGGG|G2FAAA|A2F GAG|F2zAAA|A2FGGG|G2FAAA|A2FGAG|F2zFED||
M:3/4
Q:1/4=120
C2GGFG|A2FFED|C2GGAG|F2zFED|C2GGFG|A2FFED|C2GGAG|F3 z3||
